X:1
T:James Gibb editions
T:Ich bin jung gewesen - Schütz
T:#
%%score [ 1 2 ] 3
L:1/8
Q:1/4=108
M:4/4
K:F
V:1 bass nm="Bass I"
V:2 bass nm="Bass II"
V:3 bass nm="Continuo"
V:1
"^Heinrich Schütz\n(1585-1672)""^Ich bin jung gewesen, SWV 320""^Psalm 37:25" F,4 F,2 F,2- | %1
w: Ich bin jung|
 F,2 F,2 E,4 | F,4 D,4 | B,,4 A,,4 | G,,8 | F,,4 z2 F,2 | D,2 E,F, G,3 D, | %7
w: * ge- we-|sen und|bin alt|wor-|den und|ha- be noch nie ge-|
[M:4/4] E,2 E,2 z2 F,F, | F,2 _E,D, D,4 | C,8 | z8 | z8 | z8 | F,4 F,2 F,2- | F,2 F,2 E,4 | %15
w: se- hen den Ge-|rech- ten ver- las-|sen,||||ich bin jung|* ge- we-|
 F,4 D,4 | B,,4 A,,4 | G,,8 | F,,8 | z8 | B,4 B,2 B,2- | B,2 B,2 A,4 | B,4 F,4 | _E,6 D,2 | C,8 | %25
w: sen und|bin alt|wor-|den,||ich bin jung|* ge- we-|sen und|bin alt|wor-|
 B,,8 | z8 | z8 | z8 | z2 G,2 E,2 F,G, | A,3 E, ^F,2 F,2 | z2 G,G, G,2 !courtesy!=F,E, | E,4 D,4 | %33
w: den||||und ha- be noch|nie ge- se- hen|den Ge- rech- ten ver-|las- sen,|
 z2 B,,4 B,,2 | _E,2 D,2 G,4 | !courtesy!=E,2 C,2 F,4 | (D,>_E, B,,>C, D,4) | G,,4 z2 G,2 | %38
w: o- der|sei- nen Sa-|men nach Brod|ge\- * * * *|hen, und|
 E,2 F,G, A,2 z A, | F,2 G,A, B,2 z B, | G,2 A,B, C3 G, | A,2 A,2 z2 B,B, | B,2 A,G, (F,>G, A,2- | %43
w: ha- be noch nie, und|ha- be noch nie, und|ha- be noch nie ge-|se- hen den Ge-|rech- ten ver- las\- * *|
 A,2 G,F, G,4) | A,8 | z8 | z8 | z8 | z8 | z4 F,4 | F,2 B,2 G,2 C2- | C2 A,2 F,2 B,2- | %52
w: |sen,|||||o-|der sei- nen Sa\-|* men nach Brod|
 B,2 (G,>F, E,3/2F,/4G,/4 F,2- | F,2 E,2) F,4 | z8 | z F,F,_E, D, (B,,/C,/ D,/=E,/F,/D,/ | %56
w: * ge\- * * * * *|* * hen,||Al- le- lu- ja, Al\- * * * * *|
 _E,)B,, F,,2 B,,4 | z D,D,C, B,, (G,,/A,,/ B,,/C,/D,/E,/ | ^F, G,2 F, G,G,G,=F, | %59
w: * le- lu- ja,|Al- le- lu- ja, Al\- * * * * *|* le- lu- ja, Al- le- lu-|
 E, (C,/D,/ E,/F,/G,/E,/ F,)F,, C,2 | F,,F,F,_E, D, (B,,/C,/ D,/=E,/F,/D,/ | E,A, G,2 F,4 | %62
w: ja, Al\- * * * * * * le- lu-|ja, Al- le- lu- ja, Al\- * * * * *|* le- lu- ja,|
 z2 B,,C, D,E,[Q:1/4=106] F,2) | %63
w: Al\- * * * *|
[Q:1/4=104] (E,/[Q:1/4=103]F,/[Q:1/4=102]G,/[Q:1/4=101]E,/)[Q:1/4=98] F,4)[Q:1/4=93] E,2 | %64
w: le\- * * * * lu-|
[Q:1/4=92] !fermata!F,8 |] %65
w: ja.|
V:2
 z8 | z8 | z8 | z8 | z8 | z8 | z8 |[M:4/4] z8 | z8 | z8 | F,4 F,2 F,2- | F,2 F,2 E,4 | F,4 D,4 | %13
w: ||||||||||Ich bin jung|* ge- we-|sen und|
 B,,4 A,,4 | G,,8 | F,,4 z4 | z8 | B,4 B,2 B,2- | B,2 B,2 A,4 | B,4 G,4 | _E,4 D,4 | C,8 | %22
w: bin alt|wor-|den,||ich bin jung|* ge- we-|sen und|bin alt|wor-|
 B,,4 B,,4 | _E,,4 E,,4 | F,,8 | B,,4 z2 F,2 | D,2 E,F, G,3 D, | E,2 E,2 z2 F,F, | F,2 _E,D, D,4 | %29
w: den, und|bin alt|wor-|den und|ha- be noch nie ge-|se- hen den Ge-|rech- ten ver- las-|
 C,4 z4 | z8 | z8 | z8 | z8 | z8 | z8 | z8 | z8 | z2 C,2 A,,2 B,,C, | D,2 z D, B,,2 C,D, | %40
w: sen,|||||||||und ha- be noch|nie, und ha- be noch|
 _E,2 z E, C,2 D,=E, | F,3 ^C, D,2 D,2 | z2 D,D, D,2 C,C, | B,,8 | A,,8 | z2 F,,4 F,,2 | %46
w: nie, und ha- be noch|nie ge- se- hen|den Ge- rech- ten ver-|las-|sen,|o- der|
 B,,2 A,,2 D,4 | =B,,2 G,,2 C,4 | (A,,>B,, F,,>G,, A,,4) | D,,4 z2 B,,2- | B,,2 B,,2 _E,2 C,2 | %51
w: sei- nen Sa-|men nach Brod|ge\- * * * *|hen, o\-|* der sei- nen|
 F,4 D,2 B,,2 | _E,4 (C,>D, A,,>B,, | C,4) F,,4 | z F,F,_E, D, (B,,/C,/ D,/=E,/F,/D,/ | %55
w: Sa- men nach|Brod ge\- * * *|* hen,|Al- le- lu- ja, Al\- * * * * *|
 _E,B,, F,,2 B,,4 | z F,F,_E, D, (G,,/A,,/ B,,/C,/D,/=E,/ | ^F,) G,2 F, G,4 | %58
w: * le- lu- ja,|Al- le- lu- ja, Al\- * * * * *|* le- lu- ja,|
 z D,D,C, =B,, G,,/A,,/ B,,/C,/D,/B,,/ | C,)F,, C,2 F,,C,C,B,, | %60
w: Al- le- lu- ja, Al\- * * * * *|* le- lu- ja, Al- le- lu|
 A,, (F,,/G,,/ A,,/B,,/C,/A,,/ B,,/C,/D,/E,/ F,/G,/A,/F,/ | G, F,2 E, F,4 | %62
w: ja, Al\- * * * * * * * * * * * * *|* le- lu- ja,|
 (B,,C,D,E, F,2) (B,,/C,/D,/)B,,/) | C,8 | !fermata!F,,8 |] %65
w: Al\- * * * * le\- * * *|lu-|ja.|
V:3
 F,4 F,2 F,2- | F,2 F,2 E,4 | F,4 D,4 | B,,4 A,,4 | G,,8 | F,,4 F,,4 | B,,4 =B,,4 | %7
w: |* * 6|||||* 6|
[M:4/4] C,4 A,,4 | =B,,2 C,2 G,,4 | C,8 | F,4 F,2 F,2- | F,2 F,2 E,4 | F,4 D,4 | B,,4 A,,4 | %14
w: * 6||||* * 6||* 6|
 x4- x4 | F,,4 D,4 | B,,4 A,,4 | x4- x4 | x4- x4 | B,4 G,4 | _E,4 D,4 | x4- x4 | B,,4 B,,4 | %23
w: 7||* 6|7|4||* 6|7||
 _E,,8 | x4- x4 | B,,8 | B,,4 =B,,4 | C,4 A,,4 | =B,,2 C,2 G,,4 | C,8 | ^C,4 D,4 | =B,,4 C,2 D,2 | %32
w: |4|||* 6|||||
 A,,4 D,4 | z2 B,,4 B,,2 | _E,2 D,2 G,4 | !courtesy!=E,2 C,2 F,4 | D,2 B,,2 D,4 | G,,4 G,,4 | %38
w: ||||||
 C,4 A,,4 | D,4 B,,4 | _E,4 C,4 | F,3 ^C, D,2 D,2- | D,2 D,4 C,2 | x4- x4 | A,,8 | z2 F,,4 F,,2 | %46
w: |||* * * 6|* 5 6|7|||
 B,,2 A,,2 D,4 | =B,,2 G,,2 C,4 | A,,2 F,,2 A,,4 | D,,4 B,,4- | B,,2 B,,2 _E,2 C,2 | F,4 D,2 B,,2 | %52
w: ||||||
 _E,4 C,2 A,,2 | x2- x2 F,,4 | F,,4 B,,4 | _E,B,, F,,2 B,,4 | _E,B,, F,2 B,,G,,B,,C, | %57
w: * * 6|4 *||||
 D,G,, x-x G,,2 B,,C, | D,G,, x-x G,,4 | C,F,, C,2 F,,4 | A,,4 B,,2 D,2 | C,F,, C,2 F,,4 | %62
w: * * 4 * * *|* * 4 *||6 * *||
 B,,6 B,,2 | x2- x4 x2 | !fermata!F,,8 |] %65
w: |3||

